ukui-icon-theme/48x48/devices/battery.svg

<?xml version="1.0" encoding="iso-8859-1"?>
<!-- Generator: Adobe Illustrator 21.0.0, SVG Export Plug-In . SVG Version: 6.00 Build 0)  -->
<svg version="1.1" id="&#x5176;&#x4ED6;" xmlns="http://www.w3.org/2000/svg" xmlns:xlink="http://www.w3.org/1999/xlink" x="0px"
	 y="0px" viewBox="0 0 48 48" style="enable-background:new 0 0 48 48;" xml:space="preserve">
<title>画板 22</title>
<g id="&#x7535;&#x6C60;">
	<path style="opacity:0.2;enable-background:new    ;" d="M10.75,46V4.53h6.57V4.05c0.08-1.212,1.127-2.131,2.34-2.051
		C19.663,2,19.667,2,19.67,2h8.66c1.206-0.091,2.257,0.814,2.348,2.02c0.001,0.01,0.001,0.02,0.002,0.03v0.47h6.57V46H10.75z"/>
	<path style="opacity:0.1;enable-background:new    ;" d="M10.75,48V4.53h6.62c0.342-1.531,1.733-2.597,3.3-2.53h8.66
		c1.568-0.073,2.963,0.989,3.31,2.52h6.62V48H10.75z"/>
	<path style="opacity:0.1;enable-background:new    ;" d="M11.75,47V5.53h6.57V5.05c0.08-1.212,1.127-2.131,2.34-2.051
		C20.663,3,20.667,3,20.67,3h8.66c1.206-0.091,2.257,0.814,2.348,2.02c0.001,0.01,0.001,0.02,0.002,0.03v0.47h6.57V47H11.75z"/>
	<path style="fill:#455A64;" d="M35.77,5.52h-6.09V4.05C29.592,3.39,28.991,2.923,28.33,3h-8.66c-0.665-0.083-1.272,0.386-1.36,1.05
		v1.47h-6.56V45h24.5V5.52H35.77z"/>
	
		<linearGradient id="SVGID_1_" gradientUnits="userSpaceOnUse" x1="12.23" y1="6.245" x2="35.88" y2="6.245" gradientTransform="matrix(1 0 0 -1 0 50)">
		<stop  offset="0" style="stop-color:#ADC1C9"/>
		<stop  offset="1" style="stop-color:#6C91A3"/>
	</linearGradient>
	<rect x="12.23" y="43" style="fill:url(#SVGID_1_);" width="23.53" height="1.51"/>
	
		<linearGradient id="SVGID_2_" gradientUnits="userSpaceOnUse" x1="18.8" y1="45.19" x2="29.25" y2="45.19" gradientTransform="matrix(1 0 0 -1 0 50)">
		<stop  offset="0" style="stop-color:#CDE0E8"/>
		<stop  offset="1" style="stop-color:#90A4AE"/>
	</linearGradient>
	<path style="fill:url(#SVGID_2_);" d="M28.33,3.49h-8.66c-0.48,0-0.87,0.25-0.87,0.56v2.08h10.4V4.05
		C29.2,3.74,28.81,3.49,28.33,3.49z"/>
	
		<linearGradient id="SVGID_3_" gradientUnits="userSpaceOnUse" x1="18.8" y1="44.85" x2="29.25" y2="44.85" gradientTransform="matrix(1 0 0 -1 0 50)">
		<stop  offset="0" style="stop-color:#ADC1C9"/>
		<stop  offset="1" style="stop-color:#6C91A3"/>
	</linearGradient>
	<path style="fill:url(#SVGID_3_);" d="M28.33,3.83h-8.66c-0.48,0-0.87,0.25-0.87,0.56v2.08h10.4V4.39
		C29.2,4.08,28.81,3.83,28.33,3.83z"/>
	
		<linearGradient id="SVGID_4_" gradientUnits="userSpaceOnUse" x1="12.23" y1="42.895" x2="35.88" y2="42.895" gradientTransform="matrix(1 0 0 -1 0 50)">
		<stop  offset="0" style="stop-color:#ADC1C9"/>
		<stop  offset="1" style="stop-color:#6C91A3"/>
	</linearGradient>
	<rect x="12.23" y="6.01" style="fill:url(#SVGID_4_);" width="23.53" height="2.19"/>
	
		<linearGradient id="SVGID_5_" gradientUnits="userSpaceOnUse" x1="12.7" y1="43.855" x2="35.3" y2="43.855" gradientTransform="matrix(1 0 0 -1 0 50)">
		<stop  offset="0" style="stop-color:#CDE0E8"/>
		<stop  offset="1" style="stop-color:#90A4AE"/>
	</linearGradient>
	<rect x="12.23" y="6.01" style="fill:url(#SVGID_5_);" width="23.53" height="0.27"/>
	
		<linearGradient id="SVGID_6_" gradientUnits="userSpaceOnUse" x1="23.995" y1="7.38" x2="23.995" y2="41.51" gradientTransform="matrix(1 0 0 -1 0 50)">
		<stop  offset="0.24" style="stop-color:#689F38"/>
		<stop  offset="0.94" style="stop-color:#8BC34A"/>
	</linearGradient>
	<rect x="12.23" y="8.36" style="fill:url(#SVGID_6_);" width="23.53" height="34.53"/>
	<rect x="16.74" y="6" style="opacity:0.24;fill:#FFFFFF;enable-background:new    ;" width="6.15" height="38.51"/>
	<rect x="20.41" y="3.49" style="opacity:0.24;fill:#FFFFFF;enable-background:new    ;" width="3.97" height="2.51"/>
	
		<linearGradient id="SVGID_7_" gradientUnits="userSpaceOnUse" x1="12.23" y1="7.225" x2="35.76" y2="7.225" gradientTransform="matrix(1 0 0 -1 0 50)">
		<stop  offset="0" style="stop-color:#DCE775"/>
		<stop  offset="1" style="stop-color:#AED581"/>
	</linearGradient>
	<rect x="12.23" y="42.65" style="fill:url(#SVGID_7_);" width="23.53" height="0.25"/>
	
		<linearGradient id="SVGID_8_" gradientUnits="userSpaceOnUse" x1="12.23" y1="6.965" x2="35.76" y2="6.965" gradientTransform="matrix(1 0 0 -1 0 50)">
		<stop  offset="0" style="stop-color:#F6F7F7"/>
		<stop  offset="0.12" style="stop-color:#DEDEDE"/>
		<stop  offset="0.24" style="stop-color:#F5F4F4"/>
		<stop  offset="0.56" style="stop-color:#F5F4F4"/>
		<stop  offset="0.61" style="stop-color:#E1E3DF"/>
		<stop  offset="0.88" style="stop-color:#9F9E9B"/>
		<stop  offset="0.92" style="stop-color:#CED1CD"/>
		<stop  offset="1" style="stop-color:#F6F7F7"/>
	</linearGradient>
	<rect x="12.23" y="42.91" style="fill:url(#SVGID_8_);" width="23.53" height="0.25"/>
	
		<linearGradient id="SVGID_9_" gradientUnits="userSpaceOnUse" x1="12.23" y1="6.965" x2="35.76" y2="6.965" gradientTransform="matrix(1 0 0 -1 0 50)">
		<stop  offset="0" style="stop-color:#CDE0E8"/>
		<stop  offset="1" style="stop-color:#90A4AE"/>
	</linearGradient>
	<rect x="12.23" y="42.91" style="fill:url(#SVGID_9_);" width="23.53" height="0.25"/>
	
		<linearGradient id="SVGID_10_" gradientUnits="userSpaceOnUse" x1="12.23" y1="41.665" x2="35.76" y2="41.665" gradientTransform="matrix(1 0 0 -1 0 50)">
		<stop  offset="0" style="stop-color:#90A4AE"/>
		<stop  offset="1" style="stop-color:#607D8B"/>
	</linearGradient>
	<rect x="12.23" y="8.21" style="fill:url(#SVGID_10_);" width="23.53" height="0.25"/>
	
		<linearGradient id="SVGID_11_" gradientUnits="userSpaceOnUse" x1="12.23" y1="41.455" x2="35.76" y2="41.455" gradientTransform="matrix(1 0 0 -1 0 50)">
		<stop  offset="0" style="stop-color:#DCE775"/>
		<stop  offset="1" style="stop-color:#AED581"/>
	</linearGradient>
	<rect x="12.23" y="8.42" style="fill:url(#SVGID_11_);" width="23.53" height="0.25"/>
	<g>
		<polygon style="fill:#33691E;" points="24.29,9.57 26.64,11.92 21.93,11.92 		"/>
		<polygon style="fill:#33691E;" points="23.77,13.8 24.8,13.8 24.8,16.24 27.25,16.24 27.25,17.28 24.8,17.28 24.8,19.73 
			23.77,19.73 23.77,17.28 21.32,17.28 21.32,16.24 23.77,16.24 		"/>
	</g>
	<polygon style="fill:#DCEDC8;" points="23.98,9.27 26.33,11.62 21.63,11.62 	"/>
	<polygon style="fill:#DCEDC8;" points="23.46,13.49 24.5,13.49 24.5,15.94 26.95,15.94 26.95,16.98 24.5,16.98 24.5,19.42 
		23.46,19.42 23.46,16.98 21.02,16.98 21.02,15.94 23.46,15.94 	"/>
</g>
</svg>

<svg id="其他" xmlns="http://www.w3.org/2000/svg" xmlns:xlink="http://www.w3.org/1999/xlink" viewBox="0 0 48 48"><defs><style>.cls-1{opacity:0.2;}.cls-2{opacity:0.1;}.cls-3{fill:#455a64;}.cls-4{fill:url(#linear-gradient);}.cls-17,.cls-18,.cls-5,.cls-6{fill-rule:evenodd;}.cls-5{fill:url(#linear-gradient-2);}.cls-6{fill:url(#linear-gradient-3);}.cls-7{fill:url(#linear-gradient-4);}.cls-8{fill:url(#linear-gradient-5);}.cls-9{fill:url(#linear-gradient-6);}.cls-10{fill:#fff;opacity:0.24;}.cls-10,.cls-16,.cls-17,.cls-18{isolation:isolate;}.cls-11{fill:url(#linear-gradient-7);}.cls-12{fill:url(#GradientFill_77);}.cls-13{fill:url(#linear-gradient-8);}.cls-14{fill:url(#linear-gradient-9);}.cls-15{fill:url(#linear-gradient-10);}.cls-17{fill:#33691e;}.cls-18{fill:#dcedc8;}</style><linearGradient id="linear-gradient" x1="12.23" y1="43.76" x2="35.88" y2="43.76" gradientUnits="userSpaceOnUse"><stop offset="0" stop-color="#adc1c9"/><stop offset="1" stop-color="#6c91a3"/></linearGradient><linearGradient id="linear-gradient-2" x1="18.8" y1="4.81" x2="29.25" y2="4.81" gradientUnits="userSpaceOnUse"><stop offset="0" stop-color="#cde0e8"/><stop offset="1" stop-color="#90a4ae"/></linearGradient><linearGradient id="linear-gradient-3" x1="18.8" y1="5.15" x2="29.25" y2="5.15" xlink:href="#linear-gradient"/><linearGradient id="linear-gradient-4" x1="12.23" y1="7.11" x2="35.88" y2="7.11" xlink:href="#linear-gradient"/><linearGradient id="linear-gradient-5" x1="12.7" y1="6.15" x2="35.3" y2="6.15" xlink:href="#linear-gradient-2"/><linearGradient id="linear-gradient-6" x1="24" y1="42.62" x2="24" y2="8.49" gradientUnits="userSpaceOnUse"><stop offset="0.24" stop-color="#689f38"/><stop offset="0.94" stop-color="#8bc34a"/></linearGradient><linearGradient id="linear-gradient-7" x1="12.23" y1="42.77" x2="35.77" y2="42.77" gradientUnits="userSpaceOnUse"><stop offset="0" stop-color="#dce775"/><stop offset="1" stop-color="#aed581"/></linearGradient><linearGradient id="GradientFill_77" x1="12.23" y1="43.03" x2="35.77" y2="43.03" gradientUnits="userSpaceOnUse"><stop offset="0" stop-color="#f6f7f7"/><stop offset="0.12" stop-color="#dedede"/><stop offset="0.24" stop-color="#f5f4f4"/><stop offset="0.56" stop-color="#f5f4f4"/><stop offset="0.61" stop-color="#e1e3df"/><stop offset="0.88" stop-color="#9f9e9b"/><stop offset="0.92" stop-color="#ced1cd"/><stop offset="1" stop-color="#f6f7f7"/></linearGradient><linearGradient id="linear-gradient-8" x1="12.23" y1="43.03" x2="35.77" y2="43.03" xlink:href="#linear-gradient-2"/><linearGradient id="linear-gradient-9" x1="12.23" y1="8.33" x2="35.77" y2="8.33" gradientUnits="userSpaceOnUse"><stop offset="0" stop-color="#90a4ae"/><stop offset="1" stop-color="#607d8b"/></linearGradient><linearGradient id="linear-gradient-10" x1="12.23" y1="8.55" x2="35.77" y2="8.55" xlink:href="#linear-gradient-7"/></defs><title>画板 22</title><g id="电池"><path class="cls-1" d="M10.75,46V4.53h6.57V4.05A2.2,2.2,0,0,1,19.67,2h8.66a2.19,2.19,0,0,1,2.35,2.05v.47h6.57V46Z"/><path class="cls-2" d="M10.75,48V4.53h6.62A3.24,3.24,0,0,1,20.67,2h8.66a3.24,3.24,0,0,1,3.31,2.52h6.62V48Z"/><path class="cls-2" d="M11.75,47V5.53h6.57V5.05A2.2,2.2,0,0,1,20.67,3h8.66a2.19,2.19,0,0,1,2.35,2.05v.47h6.57V47Z"/><path class="cls-3" d="M35.77,5.52H29.68V4.05A1.22,1.22,0,0,0,28.33,3H19.67a1.22,1.22,0,0,0-1.36,1.05V5.52H11.75V45H36.25V5.52Z"/><rect class="cls-4" x="12.23" y="43" width="23.53" height="1.51"/><path class="cls-5" d="M28.33,3.49H19.67c-.48,0-.87.25-.87.56V6.13H29.2V4.05C29.2,3.74,28.81,3.49,28.33,3.49Z"/><path class="cls-6" d="M28.33,3.83H19.67c-.48,0-.87.25-.87.56V6.47H29.2V4.39C29.2,4.08,28.81,3.83,28.33,3.83Z"/><rect class="cls-7" x="12.23" y="6.01" width="23.53" height="2.19"/><rect class="cls-8" x="12.23" y="6.01" width="23.53" height="0.27"/><rect class="cls-9" x="12.23" y="8.36" width="23.53" height="34.53"/><rect class="cls-10" x="16.74" y="6" width="6.15" height="38.51"/><rect class="cls-10" x="20.41" y="3.49" width="3.97" height="2.51"/><rect class="cls-11" x="12.23" y="42.65" width="23.53" height="0.25"/><rect class="cls-12" x="12.23" y="42.91" width="23.53" height="0.25"/><rect class="cls-13" x="12.23" y="42.91" width="23.53" height="0.25"/><rect class="cls-14" x="12.23" y="8.21" width="23.53" height="0.25"/><rect class="cls-15" x="12.23" y="8.42" width="23.53" height="0.25"/><g class="cls-16"><polygon class="cls-17" points="24.29 9.57 26.64 11.92 21.93 11.92 24.29 9.57"/><polygon class="cls-17" points="23.77 13.8 24.8 13.8 24.8 16.24 27.25 16.24 27.25 17.28 24.8 17.28 24.8 19.73 23.77 19.73 23.77 17.28 21.32 17.28 21.32 16.24 23.77 16.24 23.77 13.8"/></g><polygon class="cls-18" points="23.98 9.27 26.33 11.62 21.63 11.62 23.98 9.27"/><polygon class="cls-18" points="23.46 13.49 24.5 13.49 24.5 15.94 26.95 15.94 26.95 16.98 24.5 16.98 24.5 19.42 23.46 19.42 23.46 16.98 21.02 16.98 21.02 15.94 23.46 15.94 23.46 13.49"/></g></svg>
